src/images/svg/be-square/cross-domain-training.svg

<svg width="64" height="64" viewBox="0 0 64 64" fill="none" xmlns="http://www.w3.org/2000/svg">
<g clip-path="url(#clip0)">
<path d="M63.3831 30.8157L61.0711 29.229C60.5904 28.8992 59.9442 28.8993 59.4634 29.2292L56.8109 31.0495H53.8592C53.7862 29.3367 53.5145 27.6695 53.0649 26.0724H59.8219C60.3398 26.0724 60.7594 25.6528 60.7594 25.1349V21.796L62.5799 19.1433C62.9099 18.6625 62.91 18.0164 62.58 17.5357C62.58 17.5355 62.58 17.5355 62.5799 17.5354L60.9934 15.2235C60.7284 14.8373 60.2904 14.6067 59.8219 14.6067C59.3534 14.6067 58.9154 14.8373 58.6504 15.2235L57.0638 17.5357C56.7337 18.0165 56.7339 18.6627 57.0639 19.1433L58.8844 21.796V24.1974H52.444C49.6219 16.8148 42.9194 11.3095 34.7655 10.2807C34.2525 10.2167 33.7829 10.5798 33.718 11.0935C33.6531 11.6072 34.0171 12.0762 34.5309 12.141C35.579 12.2733 36.5995 12.487 37.5874 12.7737C37.5774 12.817 37.5665 12.8603 37.5565 12.9038C37.5293 13.023 37.4831 13.1802 37.4342 13.3464C37.2654 13.9215 37.074 14.5733 37.1647 15.1745C37.2717 15.8854 37.8449 16.273 38.2243 16.5295C38.3179 16.5929 38.424 16.6645 38.4686 16.7059C38.9862 17.1848 39.2955 17.7997 39.3174 18.3929C39.3449 19.1332 38.8816 19.8695 38.475 20.4284C38.4047 20.5248 38.3345 20.6208 38.2641 20.7164C37.7804 21.3757 37.28 22.0575 36.8908 22.8578C36.4656 23.732 36.1504 24.7098 35.9272 25.8468C35.7303 26.8499 35.582 28.1445 36.1903 29.2598C36.676 30.1508 37.5872 30.7608 38.8988 31.073C39.6014 31.2403 40.2546 31.324 40.8532 31.324C41.3002 31.324 41.7169 31.2773 42.1005 31.1839C43.2414 30.9057 44.0887 30.1332 44.7673 29.4139C46.0605 28.0433 47.2425 26.4359 48.2805 24.6363C48.721 23.8729 49.1234 23.085 49.4865 22.2814C51.0938 25.1703 52.005 28.4862 52.005 31.9874C52.005 36.3697 50.5875 40.4265 48.1885 43.7259C48.1672 43.6874 48.146 43.6488 48.1254 43.6115C47.5205 42.5179 46.7686 41.4974 45.8906 40.5784C45.5327 40.204 44.9395 40.1905 44.5651 40.5483C44.1909 40.9059 44.1772 41.4994 44.535 41.8738C45.3018 42.6762 45.9578 43.5662 46.4846 44.5189C46.6178 44.7595 46.7644 45.0284 46.9118 45.3077C43.2459 49.4072 37.9196 51.9923 32.0003 51.9923C29.8149 51.9923 27.7108 51.6388 25.7406 50.9882C26.4703 49.1569 27.1691 47.745 27.7384 46.9622C28.4484 45.9857 28.9023 45.8528 29.0243 45.8353C29.0734 45.8282 29.1637 45.8155 29.323 45.9389C30.5991 46.9263 31.9579 46.9878 33.1494 46.1123C34.3388 45.2385 34.6221 43.8983 34.8499 42.8213C34.8693 42.7294 34.8888 42.6374 34.9086 42.5458C35.109 41.6253 35.5399 40.8473 36.1895 40.2335C37.5865 38.914 39.5735 38.6403 41.375 39.5192C41.5078 39.584 41.6436 39.6547 41.7902 39.7353C42.2441 39.9845 42.814 39.8188 43.0635 39.3652C43.3127 38.9113 43.1471 38.3414 42.6934 38.0919C42.5197 37.9965 42.3574 37.9122 42.1969 37.834C39.6763 36.6042 36.8809 37.0014 34.902 38.8705C33.9726 39.7484 33.3585 40.851 33.0765 42.1473C33.0558 42.2424 33.0356 42.3379 33.0154 42.4335C32.8205 43.3552 32.6522 44.151 32.0392 44.6014C31.614 44.9137 31.1845 45.0088 30.4706 44.4563C29.9559 44.0578 29.3643 43.8928 28.7594 43.9793C27.8927 44.103 27.039 44.7357 26.2218 45.8598C25.4164 46.9674 24.6095 48.7597 23.99 50.3168C22.8794 49.8295 21.8205 49.2454 20.8256 48.573C22.3695 47.4803 23.3726 45.9915 23.694 44.2702C23.9026 43.152 23.8596 42.0479 23.818 40.98C23.7936 40.3544 23.7706 39.7635 23.7961 39.18C23.8259 38.4965 23.8769 37.7843 24.1374 37.2452C24.3215 36.8647 24.6898 36.5834 25.1523 36.2555C25.4496 36.0445 25.7708 35.8365 26.1109 35.6164C26.4139 35.4203 26.7271 35.2174 27.0364 35.0035C27.4621 34.7092 27.5688 34.1252 27.2743 33.6992C26.9797 33.2734 26.396 33.1668 25.9699 33.4613C25.684 33.6589 25.3829 33.854 25.0916 34.0425C24.7502 34.2637 24.3971 34.4923 24.0675 34.7262C23.43 35.1782 22.8266 35.6487 22.4492 36.4292C22.0335 37.2895 21.9595 38.258 21.9228 39.0984C21.894 39.7593 21.9196 40.4172 21.9444 41.0533C21.9836 42.0622 22.0207 43.015 21.8506 43.9263C21.5184 45.706 20.228 46.7873 19.2289 47.3737C14.8125 43.7015 11.9956 38.1685 11.9951 31.9897C11.9951 31.989 11.9952 31.9884 11.9952 31.9877C11.9952 31.987 11.9951 31.9864 11.9951 31.9858C11.996 23.1205 17.7638 15.5567 25.8255 12.9518C24.879 15.4125 24.4403 17.9725 25.7201 20.4903C26.1087 21.2549 26.6069 21.9152 27.0884 22.5538C27.4756 23.0672 27.8411 23.5522 28.1371 24.0693C28.8276 25.2762 28.7715 26.7007 28.6453 28.1763C28.5623 29.1477 28.438 30.1684 28.094 31.051C27.906 31.5335 28.1446 32.077 28.6271 32.265C28.7391 32.3087 28.854 32.3293 28.9674 32.3293C29.3425 32.3293 29.6968 32.1025 29.8411 31.732C30.2712 30.6279 30.4185 29.4474 30.5135 28.3362C30.66 26.6243 30.7227 24.8127 29.7646 23.1382C29.4099 22.518 28.9907 21.9623 28.5854 21.4249C28.1329 20.8248 27.7054 20.2579 27.3915 19.6408C26.2834 17.4608 26.8526 15.1395 28.1076 12.3612C29.0325 12.1795 29.9806 12.0604 30.9482 12.0104C31.4654 11.9835 31.8627 11.5428 31.8361 11.0257C31.8092 10.5085 31.3673 10.1133 30.8514 10.1378C21.9608 10.598 14.5435 16.3202 11.546 24.198H5.11575V21.7965L6.936 19.1443C7.2665 18.6633 7.26663 18.0168 6.93625 17.5359L5.34975 15.224C5.08475 14.8378 4.64675 14.6072 4.17825 14.6072C3.70987 14.6072 3.27187 14.8378 3.00688 15.224L1.42037 17.5359C1.42025 17.536 1.42025 17.536 1.42025 17.5362C1.09025 18.017 1.09037 18.6632 1.42037 19.1438L3.24088 21.7965V25.1354C3.24088 25.6533 3.6605 26.0729 4.17837 26.0729H10.9294C10.4834 27.6672 10.2135 29.3338 10.1411 31.05H7.18925L4.5365 29.2295C4.05575 28.8997 3.40963 28.8995 2.92875 29.2297L0.616875 30.8157C0.230625 31.0807 0 31.5187 0 31.987C0 32.4555 0.230625 32.8935 0.616875 33.1585L2.92875 34.7452C2.92887 34.7453 2.92887 34.7453 2.929 34.7453C3.16937 34.9102 3.451 34.9927 3.73275 34.9927C4.0145 34.9927 4.29637 34.9102 4.53687 34.7453L7.18975 32.9247H10.1415C10.2143 34.6419 10.485 36.3085 10.933 37.902H4.17825C3.66037 37.902 3.24075 38.3217 3.24075 38.8395V42.1784L1.42 44.8313C1.09012 45.312 1.09012 45.9582 1.42 46.4388C1.42 46.4389 1.42 46.4389 1.42013 46.439L3.00662 48.7509C3.27163 49.1372 3.70963 49.3678 4.178 49.3678C4.6465 49.3678 5.0845 49.1372 5.3495 48.7509L6.93587 46.4392C7.26625 45.9582 7.26625 45.3118 6.936 44.831L5.11562 42.1784V39.777H11.5542C14.7774 48.2083 22.8746 53.8673 32 53.8673C41.3009 53.8673 49.2919 48.0267 52.4455 39.777H58.8843V42.1784L57.0636 44.8313C56.7337 45.312 56.7337 45.9582 57.0638 46.439L58.6502 48.7509C58.9152 49.1372 59.3533 49.3678 59.8218 49.3678C60.2902 49.3678 60.7283 49.1372 60.9933 48.7509L62.58 46.439C62.5801 46.4389 62.5801 46.4389 62.5801 46.4388C62.91 45.958 62.91 45.3119 62.58 44.831L60.7595 42.1783V38.8394C60.7595 38.3215 60.3399 37.9019 59.822 37.9019H53.0671C53.5151 36.3084 53.7859 34.6417 53.8586 32.9245H56.8105L59.4636 34.7453C59.704 34.9102 59.9858 34.9927 60.2674 34.9927C60.5491 34.9927 60.8309 34.9103 61.0713 34.7453C61.0714 34.7453 61.0714 34.7452 61.0715 34.7452L63.3833 33.1585C63.7695 32.8935 64.0001 32.4555 64.0001 31.987C64 31.5187 63.7694 31.0807 63.3831 30.8157ZM58.7861 18.3392L59.8219 16.8299L60.8576 18.3392L59.8219 19.8483L58.7861 18.3392ZM46.6564 23.699C45.6909 25.3725 44.5965 26.8623 43.4034 28.127C42.8885 28.6727 42.3205 29.2 41.6564 29.3619C41.0591 29.5075 40.2555 29.4685 39.3329 29.2489C38.5495 29.0624 38.06 28.7724 37.8364 28.362C37.5155 27.7737 37.6307 26.9018 37.767 26.2079C37.9586 25.2319 38.2235 24.4043 38.5769 23.6777C38.892 23.03 39.3213 22.4452 39.7757 21.8259C39.8475 21.7282 39.9194 21.6303 39.9911 21.5317C40.5754 20.7287 41.2397 19.6383 41.1912 18.3238C41.1511 17.2362 40.6229 16.1448 39.742 15.3297C39.5925 15.1914 39.431 15.0822 39.2747 14.9765C39.2001 14.926 39.0885 14.8505 39.0173 14.7929C39.034 14.554 39.1605 14.1229 39.2334 13.8747C39.284 13.7023 39.3305 13.5398 39.3686 13.3832C42.9784 14.8143 46.0532 17.2625 48.2661 20.3545C47.8153 21.5035 47.275 22.6267 46.6564 23.699ZM3.1425 18.3392L4.17825 16.83L5.21387 18.3392L4.17825 19.8483L3.1425 18.3392ZM3.73275 33.0229L2.2235 31.9872L3.73263 30.9514L5.24188 31.9872L3.73275 33.0229ZM5.21387 45.6349L4.17825 47.1442L3.1425 45.635L4.17825 44.1259L5.21387 45.6349ZM60.8576 45.635L59.8219 47.1443L58.7861 45.635L59.8219 44.1258L60.8576 45.635ZM60.2674 33.0229L58.7583 31.9872L60.2675 30.9514L61.7765 31.9872L60.2674 33.0229Z" fill="#FF444F"/>
</g>
<defs>
<clipPath id="clip0">
<rect width="64" height="64" fill="white"/>
</clipPath>
</defs>
</svg>

<svg xmlns="http://www.w3.org/2000/svg" width="64" height="64" fill="none"  xmlns:v="https://vecta.io/nano"><g clip-path="url(#A)"><path d="M63.383 30.816l-2.312-1.587a1.43 1.43 0 0 0-1.608 0l-2.653 1.82h-2.952c-.073-1.713-.345-3.38-.794-4.977h6.757a.94.94 0 0 0 .938-.937v-3.339l1.821-2.653a1.43 1.43 0 0 0 0-1.608l-1.587-2.312a1.42 1.42 0 0 0-2.343 0l-1.587 2.312a1.43 1.43 0 0 0 0 1.608l1.821 2.653v2.401h-6.44c-2.822-7.383-9.525-12.888-17.678-13.917a.94.94 0 0 0-1.047.813.94.94 0 0 0 .813 1.047c1.048.132 2.069.346 3.057.633l-.031.13c-.027.119-.073.276-.122.443-.169.575-.36 1.227-.269 1.828.107.711.68 1.098 1.06 1.355.094.063.2.135.244.176.518.479.827 1.094.849 1.687.028.74-.436 1.477-.842 2.035l-.211.288c-.484.659-.984 1.341-1.373 2.141-.425.874-.74 1.852-.964 2.989-.197 1.003-.345 2.298.263 3.413.486.891 1.397 1.501 2.709 1.813.703.167 1.356.251 1.954.251a5.27 5.27 0 0 0 1.247-.14c1.141-.278 1.988-1.051 2.667-1.77 1.293-1.371 2.475-2.978 3.513-4.778a26.77 26.77 0 0 0 1.206-2.355 19.92 19.92 0 0 1 2.519 9.706c0 4.382-1.418 8.439-3.817 11.739l-.063-.114a14.69 14.69 0 0 0-2.235-3.033.94.94 0 0 0-1.325-.03.94.94 0 0 0-.03 1.326 12.8 12.8 0 0 1 1.95 2.645l.427.789c-3.666 4.1-8.992 6.685-14.911 6.685a19.93 19.93 0 0 1-6.26-1.004c.73-1.831 1.428-3.243 1.998-4.026.71-.977 1.164-1.109 1.286-1.127.049-.007.139-.02.299.104 1.276.987 2.635 1.049 3.826.173s1.473-2.214 1.7-3.291l.059-.276c.2-.92.631-1.699 1.281-2.312 1.397-1.319 3.384-1.593 5.185-.714.133.065.269.136.415.216a.94.94 0 0 0 1.273-.37.94.94 0 0 0-.37-1.273 11.36 11.36 0 0 0-.496-.258c-2.521-1.23-5.316-.833-7.295 1.036a6.24 6.24 0 0 0-1.825 3.277l-.061.286c-.195.922-.363 1.718-.976 2.168-.425.312-.855.407-1.569-.145-.515-.398-1.106-.563-1.711-.477-.867.124-1.72.756-2.538 1.88-.805 1.108-1.612 2.9-2.232 4.457-1.111-.487-2.169-1.071-3.164-1.744 1.544-1.093 2.547-2.581 2.868-4.303.209-1.118.166-2.222.124-3.29-.024-.626-.047-1.216-.022-1.8.03-.684.081-1.396.341-1.935.184-.38.552-.662 1.015-.99.297-.211.619-.419.959-.639l.925-.613a.94.94 0 0 0 .238-1.304.94.94 0 0 0-1.304-.238c-.286.198-.587.393-.878.581l-1.024.684c-.637.452-1.241.922-1.618 1.703-.416.86-.49 1.829-.526 2.669-.029.661-.003 1.319.022 1.955.039 1.009.076 1.962-.094 2.873-.332 1.78-1.623 2.861-2.622 3.447-4.416-3.672-7.233-9.205-7.234-15.384.001-8.869 5.769-16.433 13.83-19.038-.947 2.461-1.385 5.021-.105 7.539.389.765.887 1.425 1.368 2.063.387.513.753.998 1.049 1.515.691 1.207.634 2.631.508 4.107-.083.971-.207 1.992-.551 2.875a.94.94 0 0 0 .533 1.214c.112.044.227.064.34.064a.94.94 0 0 0 .874-.597c.43-1.104.577-2.285.672-3.396.146-1.712.209-3.524-.749-5.198-.355-.62-.774-1.176-1.179-1.713-.453-.6-.88-1.167-1.194-1.784-1.108-2.18-.539-4.501.716-7.28a20.11 20.11 0 0 1 2.841-.351.94.94 0 0 0 .888-.985.94.94 0 0 0-.985-.888c-8.891.46-16.308 6.182-19.305 14.06h-6.43v-2.401l1.82-2.652a1.43 1.43 0 0 0 0-1.608L5.35 15.224a1.42 1.42 0 0 0-2.343 0L1.42 17.536a1.43 1.43 0 0 0 0 1.608l1.821 2.653v3.339a.94.94 0 0 0 .937.938h6.751a21.88 21.88 0 0 0-.788 4.977H7.189l-2.653-1.82a1.43 1.43 0 0 0-1.608 0L.617 30.816a1.42 1.42 0 0 0 0 2.343l2.312 1.587a1.42 1.42 0 0 0 .804.248 1.42 1.42 0 0 0 .804-.247l2.653-1.821h2.952a21.78 21.78 0 0 0 .791 4.977H4.178a.94.94 0 0 0-.938.938v3.339L1.42 44.831a1.43 1.43 0 0 0 0 1.608l1.587 2.312a1.42 1.42 0 0 0 2.343 0l1.586-2.312a1.43 1.43 0 0 0 0-1.608l-1.82-2.653v-2.401h6.439c3.223 8.431 11.32 14.09 20.446 14.09 9.301 0 17.292-5.841 20.446-14.09h6.439v2.401l-1.821 2.653a1.43 1.43 0 0 0 0 1.608l1.586 2.312a1.42 1.42 0 0 0 2.343 0l1.587-2.312a1.43 1.43 0 0 0 0-1.608l-1.82-2.653v-3.339a.94.94 0 0 0-.937-.937h-6.755c.448-1.593.719-3.26.791-4.977h2.952l2.653 1.821a1.42 1.42 0 0 0 1.608 0l2.312-1.587a1.42 1.42 0 0 0 0-2.343zm-4.597-12.476l1.036-1.509 1.036 1.509-1.036 1.509-1.036-1.509zm-12.13 5.36c-.965 1.673-2.06 3.163-3.253 4.428-.515.546-1.083 1.073-1.747 1.235-.597.146-1.401.107-2.323-.113-.783-.186-1.273-.476-1.497-.887-.321-.588-.206-1.46-.069-2.154.192-.976.456-1.804.81-2.53.315-.648.744-1.233 1.199-1.852l.215-.294c.584-.803 1.249-1.893 1.2-3.208-.04-1.088-.568-2.179-1.449-2.994-.149-.138-.311-.248-.467-.353-.075-.05-.186-.126-.257-.184.017-.239.143-.67.216-.918a11.01 11.01 0 0 0 .135-.492c3.61 1.431 6.685 3.879 8.898 6.971a24.93 24.93 0 0 1-1.61 3.345zm-43.514-5.36l1.036-1.509 1.036 1.509-1.036 1.509-1.036-1.509zm.59 14.684l-1.509-1.036 1.509-1.036 1.509 1.036-1.509 1.036zm1.481 12.612l-1.036 1.509-1.036-1.509 1.036-1.509 1.036 1.509zm55.644 0l-1.036 1.509-1.036-1.509 1.036-1.509 1.036 1.509zm-.59-12.612l-1.509-1.036 1.509-1.036 1.509 1.036-1.509 1.036z" fill="#ff444f"/></g><defs><clipPath id="A"><path fill="#fff" d="M0 0h64v64H0z"/></clipPath></defs></svg>
